X: 25729
T: Mary Grace
R: reel
M: 4/4
K: Amixolydian
cA~A2 EA~A2|BG~G2 AG (3Bcd|cA~A2 EAcA|dBGB ~A3z|
cA~A2 eA~A2|BGdG BG~G2|=c2cA BG~G2|dBGB ~A3z:|
|:(3Bcd ef gedc|BGDG BG~G2|(3Bcd ef ~g3z|eaag aged|
(3Bcd ef gedc|BGdG BG~G2|=c2cA BG~G2|dBGB ~A3z:|
cA~A2 EA~A2|BGdG BG~G2|cA~A2 EA~A2|dBGB ~A3z|
cA~A2 EA~A2|BGdG BG~G2|=c2cA BG~G2|dBGB ~A3z:|
|:(3Bcd ef gedc|BGDG BG~G2|(3Bcd ef ~g3z|eaag aged|
(3Bcd ef gedc|BGDG BG~G2|=c2cA BG~G2|dBGB ~A3z:|

